source/img/icon-1.svg

<svg width="50" height="40" viewBox="0 0 50 40" fill="none" xmlns="http://www.w3.org/2000/svg">
<path d="M24.5 39C33.575 39 41 31.6452 41 22.6559C31.925 22.6559 24.5 29.9086 24.5 39ZM12.7438 17.6505C12.7438 20.2043 14.8062 22.1452 17.2812 22.1452C18.2094 22.1452 19.1375 21.8387 19.8594 21.328V21.6344C19.8594 24.1882 21.9219 26.129 24.3969 26.129C26.975 26.129 28.9344 24.086 28.9344 21.6344V21.328C29.6562 21.8387 30.5844 22.1452 31.5125 22.1452C34.0906 22.1452 36.05 20.1021 36.05 17.6505C36.05 15.8118 35.0188 14.2796 33.4719 13.5645C35.0188 12.8495 36.05 11.3172 36.05 9.47849C36.05 6.92473 33.9875 4.98387 31.5125 4.98387C30.5844 4.98387 29.6562 5.29032 28.9344 5.80107V5.49462C28.9344 2.94086 26.8719 1 24.3969 1C21.8187 1 19.8594 3.04301 19.8594 5.49462V5.80107C19.1375 5.29032 18.2094 4.98387 17.2812 4.98387C14.7031 4.98387 12.7438 7.02688 12.7438 9.47849C12.7438 11.3172 13.775 12.8495 15.3219 13.5645C13.8781 14.2796 12.7438 15.8118 12.7438 17.6505ZM24.5 8.96774C27.0781 8.96774 29.0375 11.0108 29.0375 13.4624C29.0375 16.0161 26.975 17.957 24.5 17.957C21.9219 17.957 19.9625 15.914 19.9625 13.4624C19.9625 11.0108 21.9219 8.96774 24.5 8.96774ZM8 22.6559C8 31.6452 15.425 39 24.5 39C24.5 29.9086 17.075 22.6559 8 22.6559Z" fill="#63D1BB"/>
</svg>

<svg width="50" height="40" fill="none" xmlns="http://www.w3.org/2000/svg"><path d="M24.5 39C33.58 39 41 31.65 41 22.66A16.4 16.4 0 0024.5 39zM12.74 17.65c0 2.55 2.07 4.5 4.54 4.5.93 0 1.86-.31 2.58-.82v.3c0 2.56 2.06 4.5 4.54 4.5a4.49 4.49 0 004.53-4.5v-.3c.73.5 1.65.82 2.58.82a4.49 4.49 0 004.54-4.5 4.43 4.43 0 00-2.58-4.09 4.43 4.43 0 002.58-4.08 4.54 4.54 0 00-7.12-3.68v-.3c0-2.56-2.06-4.5-4.53-4.5a4.49 4.49 0 00-4.54 4.5v.3a4.54 4.54 0 00-2.58-.82 4.49 4.49 0 00-4.54 4.5 4.43 4.43 0 002.58 4.08 4.61 4.61 0 00-2.58 4.1zM24.5 8.97a4.49 4.49 0 110 8.99 4.49 4.49 0 110-9zM8 22.66C8 31.65 15.43 39 24.5 39A16.4 16.4 0 008 22.66z" fill="#63D1BB"/></svg>
